!!!COM: Palestrina, Giovanni Perluigi da
!!!OPR: Missa Descendit angelus Domini
!!!OMD: Credo
!!!OTL: First Section
**kern	**kern	**kern	**kern
*Ibass	*Itenor	*Icalto	*Icant
!Bassus	!Tenor	!Altus	!Cantus
*clefF4	*clefGv2	*clefG2	*clefG2
*k[b-]	*k[b-]	*k[b-]	*k[b-]
*F:ion	*F:ion	*F:ion	*F:ion
*M4/2	*M4/2	*M4/2	*M4/2
=1	=1	=1	=1
0r	0r	0r	0cc
=2	=2	=2	=2
0r	0r	0r	1a
.	.	.	1f
=3	=3	=3	=3
0r	0r	0f	1.cc
.	.	.	2cc
=4	=4	=4	=4
0r	0r	1d	1dd
.	.	1c	2ee
.	.	.	2cc
=5	=5	=5	=5
0r	0r	1.f	2cc
.	.	.	2cc
.	.	.	1ff
.	.	2f	.
=6	=6	=6	=6
0r	0c	1g	2ee
.	.	.	2gg
.	.	2e	4gg
.	.	.	4ff
.	.	2c	4ee
.	.	.	4dd
=7	=7	=7	=7
0r	1A	2c	4ee
.	.	.	4dd
.	.	2c	4cc
.	.	.	4b-
.	1F	1f	4a
.	.	.	4g
.	.	.	2a
=8	=8	=8	=8
2r	1.c	2e	2g
2F	.	2cc	1a
2F	.	4cc	.
.	.	4b-	.
2F	2c	4a	[2f
.	.	4g	.
=9	=9	=9	=9
1B-	1d	4f	2f]
.	.	4e	.
.	.	2d	2g
2A	1e	2.c	2a
2c	.	.	4g
.	.	4d	4f
=10	=10	=10	=10
4c	1c	1e	2g
4B-	.	.	.
4A	.	.	2a
4G	.	.	.
4A	2c	2r	1cc
4G	.	.	.
4F	2c	2a	.
4E	.	.	.
=11	=11	=11	=11
4D	1f	2a	1dd
4C	.	.	.
2D	.	2a	.
[1C	2e	2cc	1g
.	2g	4c	.
.	.	4d	.
=12	=12	=12	=12
0C]	4g	4e	2r
.	4f	4d	.
.	4e	4e	2g
.	4d	4f	.
.	4e	2g	1g
.	4d	.	.
.	4c	2e	.
.	4B-	.	.
=13	=13	=13	=13
0r	4A	4f	2a
.	4G	4e	.
.	2A	4e	1cc
.	.	8d	.
.	.	8c	.
.	1G	2.d	.
.	.	.	2b-
.	.	4e	.
=14	=14	=14	=14
0r	1F	4f	1a
.	.	4c	.
.	.	1f	.
.	1r	.	1g
.	.	2e	.
=15	=15	=15	=15
2.F	2.f	2d	1a
.	.	2c	.
4F	4f	.	.
2G	2e	1r	1r
2B-	2d	.	.
=16	=16	=16	=16
2A	2c	0r	0r
4F	1f	.	.
4G	.	.	.
4A	.	.	.
4B-	.	.	.
[2c	4e	.	.
.	4d	.	.
=17	=17	=17	=17
2c]	4e	1r	1r
.	4f	.	.
2B-	1g	.	.
1A	.	2r	1cc
.	2f	2c	.
=18	=18	=18	=18
2G	2g	2d	2b-
2F	2.c	2f	2a
1c	.	2e	2g
.	4d	.	.
.	4e	4c	[2cc
.	4f	4d	.
=19	=19	=19	=19
0r	2g	4e	2cc]
.	.	4f	.
.	2G	2.g	2b-
.	2.A	.	1a
.	.	4f	.
.	.	[2f	.
.	4B-	.	.
=20	=20	=20	=20
1r	2c	2f]	1g
.	2c	2e	.
2r	2F	1f	[1a
[2F	2c	.	.
=21	=21	=21	=21
2F]	2d	0r	1a]
2D	2f	.	.
2G	2e	.	1r
2G	[2d	.	.
=22	=22	=22	=22
2.F	4d]	2r	2r
.	4c	.	.
.	1c	1f	2cc
4E	.	.	.
1D	.	.	2dd
.	2B-	2d	2ff
=23	=23	=23	=23
0r	2c	2g	2ee
.	2G	2g	1dd
.	2B-	2f	.
.	2c	2e	[2cc
=24	=24	=24	=24
1r	1G	2d	2cc]
.	.	2g	2b-
2r	2r	2a	2cc
2G	2g	[2b-	[2dd
=25	=25	=25	=25
2B-	2f	2b-]	2dd]
2c	2e	2a	1cc
1G	1d	1g	.
.	.	.	2b
=26	=26	=26	=26
1C	0c	2r	0cc
.	.	2.g	.
2r	.	.	.
.	.	4g	.
[2c	.	2e	.
=27	=27	=27	=27
4c]	0r	2g	2r
4c	.	.	.
2A	.	2a	2.cc
2c	.	2g	.
.	.	.	4cc
2d	.	2f	2a
=28	=28	=28	=28
2c	0r	2e	2cc
2B-	.	2d	2dd
2A	.	4e	2cc
.	.	4f	.
2G	.	[2g	2b-
=29	=29	=29	=29
2.A	1r	4g]	1a
.	.	4f	.
.	.	1f	.
4B-	.	.	.
1c	2r	.	1g
.	[2c	2e	.
=30	=30	=30	=30
1.F	2c]	0f	0a
.	2A	.	.
.	2c	.	.
2D	2d	.	.
=31	=31	=31	=31
2F	2c	0r	0r
2G	4B-	.	.
.	4c	.	.
2.F	4d	.	.
.	4e	.	.
.	[2f	.	.
4G	.	.	.
=32	=32	=32	=32
4A	4f]	0r	1r
4B-	4d	.	.
1c	2e	.	.
.	1d	.	2r
2B	.	.	[2g
=33	=33	=33	=33
1c	0e	2r	2g]
.	.	1c	2e
1r	.	.	2g
.	.	2A	2a
=34	=34	=34	=34
1r	0r	2c	2g
.	.	2d	4f
.	.	.	4g
2r	.	4c	4a
.	.	4d	4b-
[2c	.	4e	4cc
.	.	4f	4dd
=35	=35	=35	=35
2c]	0r	2g	2.ee
2A	.	1a	.
.	.	.	4dd
2c	.	.	2ee
2d	.	4g	[2ff
.	.	4f	.
=36	=36	=36	=36
1c	2r	2g	2ff]
.	1c	2g	2ee
2.F	.	[1f	1ff
.	2A	.	.
4G	.	.	.
=37	=37	=37	=37
2A	2c	1f]	1r
2B-	2d	.	.
2.A	2c	1r	2r
.	4F	.	2cc
4G	4G	.	.
=38	=38	=38	=38
2.F	4A	2r	2cc
.	4B-	.	.
.	2.c	2f	2cc
4E	.	.	.
1D	.	2f	1dd
.	4B	.	.
.	4B	2f	.
.	4A	.	.
=39	=39	=39	=39
1C	2c	1g	2ee
.	2c	.	2ee
1r	1F	2a	2cc
.	.	2a	2cc
=40	=40	=40	=40
0r	0r	2f	2.ff
.	.	2f	.
.	.	.	4ee
.	.	2.b-	4dd
.	.	.	4cc
.	.	.	4dd
.	.	4g	4ee
=41	=41	=41	=41
0r	0r	4a	2ff
.	.	4b-	.
.	.	1cc	2ee
.	.	.	1dd
.	.	2b-	.
=42	=42	=42	=42
1F	0r	4a	2cc
.	.	4g	.
.	.	4f	2.dd
.	.	4e	.
2F	.	2.f	.
.	.	.	4cc
2F	.	.	[2cc
.	.	4e	.
=43	=43	=43	=43
1G	1r	1d	2cc]
.	.	.	2b-
2A	2r	2c	2.cc
2A	2c	2e	.
.	.	.	4b-
=44	=44	=44	=44
2F	2c	1.f	4a
.	.	.	4g
2F	2c	.	2.a
2B-	1d	.	.
.	.	.	8g
.	.	.	8f
2B-	.	2d	2g
=45	=45	=45	=45
0A	2e	2.c	1a
.	2e	.	.
.	.	4d	.
.	2c	1e	2r
.	2c	.	[2cc
=46	=46	=46	=46
0r	2.f	2r	2cc]
.	.	1f	2cc
.	4e	.	.
.	2d	.	1dd
.	2d	2f	.
=47	=47	=47	=47
1r	2c	1g	2.ee
.	1c	.	.
.	.	.	4dd
[1F	.	[1a	4cc
.	.	.	4b-
.	2c	.	4a
.	.	.	4g
=48	=48	=48	=48
2F]	1d	1a]	1f
2F	.	.	.
1G	2e	2r	1r
.	2e	2g	.
=49	=49	=49	=49
2A	2c	2e	1r
2A	2c	2e	.
2F	2.f	2.a	1cc
2F	.	.	.
.	4e	4g	.
=50	=50	=50	=50
2.B-	4d	4f	2dd
.	4e	4e	.
.	4f	2d	2b-
4G	4g	.	.
4A	1e	1c	1cc
4B-	.	.	.
[2c	.	.	.
=51	=51	=51	=51
2c]	1d	2r	1dd
2B	.	1g	.
1c	1c	.	[1ee
.	.	2g	.
=52	=52	=52	=52
0r	2r	2a	1ee]
.	1c	2g	.
.	.	1cc	1r
.	2c	.	.
=53	=53	=53	=53
0r	2d	2b-	2r
.	2c	4a	1cc
.	.	4g	.
.	[1f	2a	.
.	.	[2a	2cc
=54	=54	=54	=54
0r	2f]	2a]	2dd
.	2e	2g	2cc
.	1d	2a	1ff
.	.	2f	.
=55	=55	=55	=55
0r	2c	1g	2ee
.	1B-	.	1dd
.	.	[1f	.
.	4A	.	4cc
.	4G	.	4b-
=56	=56	=56	=56
0r	2A	1f]	2cc
.	2B-	.	2dd
.	2c	2.e	2g
.	2A	.	2a
.	.	4f	.
=57	=57	=57	=57
0r	4G	4g	1.b-
.	4A	4f	.
.	4B-	4d	.
.	4c	4e	.
.	4d	1f	.
.	4e	.	.
.	[2f	.	2a
=58	=58	=58	=58
2r	2f]	1c	1g
1c	2e	.	.
.	1d	2r	1g
2B-	.	[2g	.
=59	=59	=59	=59
2c	1c	2g]	0r
2A	.	2f	.
2.G	1r	2g	.
.	.	2e	.
4A	.	.	.
=60	=60	=60	=60
4B-	0r	4d	1r
4c	.	4e	.
2d	.	4f	.
.	.	4g	.
2.c	.	2a	2r
.	.	2g	[2cc
4B-	.	.	.
=61	=61	=61	=61
2A	0r	2f	2cc]
2G	.	2.g	2b-
2.A	.	.	2cc
.	.	4f	.
.	.	[2f	2a
4B-	.	.	.
=62	=62	=62	=62
1c	2r	4f]	2.g
.	.	4e	.
.	1g	4e	.
.	.	8d	4a
.	.	8c	.
1r	.	1d	4b-
.	.	.	4cc
.	2f	.	[2dd
=63	=63	=63	=63
0r	2g	2G	4dd]
.	.	.	8cc
.	.	.	8b-
.	2e	2A	2cc
.	4d	4B-	1dd
.	4e	4c	.
.	4f	4d	.
.	4g	4e	.
=64	=64	=64	=64
1r	1a	4f	2cc
.	.	4g	.
.	.	4a	4f
.	.	4b-	4g
2r	2.f	1cc	4a
.	.	.	4b-
2F	.	.	[2cc
.	4e	.	.
=65	=65	=65	=65
2F	2d	1r	4cc]
.	.	.	8b
.	.	.	8a
2G	2d	.	2b
2.A	2c	2r	1cc
.	2c	2f	.
4G	.	.	.
=66	=66	=66	=66
2A	2c	2f	0r
2B-	2d	2g	.
2.c	2.e	2.a	.
4A	4c	4f	.
=67	=67	=67	=67
4B-	4d	2g	0r
4c	4e	.	.
2.d	2.f	2.b-	.
4c	4e	4a	.
2A	4e	[2a	.
.	8d	.	.
.	8c	.	.
=68	=68	=68	=68
2B-	2d	2a]	1r
2B-	2d	2g	.
2A	1e	1a	2r
2A	.	.	2cc
=69	=69	=69	=69
2A	1f	1r	2cc
2B-	.	.	2dd
1c	1e	1g	2.ee
.	.	.	4cc
=70	=70	=70	=70
2B-	2r	2g	2dd
2c	2c	2g	2ee
1F	2c	1a	1ff
.	2d	.	.
=71	=71	=71	=71
1c	2.e	2g	4ee
.	.	.	4ff
.	.	2cc	4gg
.	4c	.	4ee
1r	4d	2b-	2.ff
.	4e	.	.
.	2f	[2a	.
.	.	.	4ee
=72	=72	=72	=72
1r	2f	2a]	2dd
.	2e	4g	1cc
.	.	4f	.
1G	1d	2.g	.
.	.	.	2b
.	.	4f	.
=73	=73	=73	=73
2A	2c	1e	1cc
2c	1g	.	.
2B-	.	2r	1r
2A	2f	[2cc	.
=74	=74	=74	=74
2G	2e	2cc]	1gg
2G	2d	2b-	.
2A	4c	2a	2ff
.	4d	.	.
2c	4e	[2g	2ee
.	4c	.	.
=75	=75	=75	=75
2B-	4d	2g]	2dd
.	4e	.	.
2A	1f	2c	2cc
1G	.	2d	1b-
.	2e	4c	.
.	.	4B-	.
=76	=76	=76	=76
1F	1f	1c	1a
1r	1r	1r	1r
=77	=77	=77	=77
0F	0c	0f	0a
=78	=78	=78	=78
1B-	1d	1f	1b-
1A	1c	1f	1cc
=79	=79	=79	=79
1G	1d	1g	1b
1c	1e	1g	1cc
=80	=80	=80	=80
1F	1f	1a	1cc
1c	1g	1cc	1ee
=81	=81	=81	=81
1.F	1.a	1.cc	1.ff
2c	2g	2cc	2ee
=82	=82	=82	=82
1c	2g	1cc	2ee
.	1a	.	1cc
1d	.	1f	.
.	[2f	.	2b
=83	=83	=83	=83
0c	2f]	0g	0cc
.	4e	.	.
.	4d	.	.
.	1e	.	.
=84	=84	=84	=84
1.B-	1.f	1.b-	1.dd
2B-	2f	2b-	2dd
=85	=85	=85	=85
0B-	0f	0b-	0dd
=86	=86	=86	=86
1F	1f	1a	1cc
[1G	[1d	[1g	[1b-
=87	=87	=87	=87
2G]	2d]	2g]	2b-]
2D	2d	2f#	2a
1D	1d	1f#	1a
=88	=88	=88	=88
1C	1e	1g	0cc
[1F	1f	[1a	.
=89	=89	=89	=89
1F]	2f	1a]	1dd
.	1d	.	.
1E	.	1g	1ee
.	[2c	.	.
=90	=90	=90	=90
1D	2c]	1f	1ff
.	4B	.	.
.	4A	.	.
1D	2B	1d	1ff
.	2B	.	.
=91	=91	=91	=91
0C	0c	0g	0ee
*-	*-	*-	*-
!!!CDT: 1525/^1526/-1594/2/2
!!!OCY: Italia
!!!AGN: Mass (Parody)
!!!AST: renaissance, vocal
!!!ASW: Motet 1532 (Penet)
!!!PWK: Masses, Book 11
!!!RNB: Cadence finals: C
!!!YOR: Le Opere Complete, v. 28, p. 1
!!!YOO: Rome, Italy: Fratelli Scalera
!!!END: 1992//
!!!EED: John Miller
!!!YEC: Copyright 2000, John Miller
!!!YEN: United States of America
!!!YEM: Rights to all derivative electronic formats reserved.
!!!YEM: Refer to licensing agreement for further details.
!!!YEM: This file must be accompanied by the licensing agreement.
!!!YEM: A copy of the licensing agreement may be found at http://www.music-cog.ohio-state.edu/HumdrumDatabases/Palestrina/license.txt
!!!EMD: converted to Humdrum by Bret Aarden
